packages/core/src/svgs/networks/mono/gravity.svg

<svg width="24" height="24" viewBox="0 0 24 24" fill="none" xmlns="http://www.w3.org/2000/svg">
<path d="M21.9314 6.02943C21.7877 5.7809 21.4678 5.69901 21.2225 5.84807L8.06023 13.8568C7.72475 13.2291 7.53466 12.5119 7.53466 11.7501C7.53466 9.27703 9.53824 7.27208 12.0097 7.27208C13.071 7.27208 14.0452 7.64275 14.8124 8.26025L12.0122 10.1836L19.2894 5.97956C19.4461 5.88916 19.4998 5.68824 19.409 5.53181C19.3134 5.36631 19.0976 5.31728 18.9397 5.42554L17.1579 6.64948C15.8448 5.3221 14.0237 4.5 12.0097 4.5C8.00818 4.5 4.76422 7.7459 4.76422 11.7501C4.76422 13.0393 5.10083 14.2496 5.69034 15.2987L2 17.544L5.78906 15.4684C7.05434 17.5836 9.36653 19 12.01 19C16.0115 19 19.2554 15.7541 19.2554 11.7499V10.8841C19.2554 10.206 19.5304 9.33825 20.5052 8.81568C20.5886 8.77091 20.6189 8.66605 20.5716 8.58359C20.5252 8.50339 20.4228 8.47562 20.3428 8.52209L11.7025 13.5139C12.6671 13.1036 13.4042 12.8542 14.3816 12.6578C16.4174 12.2486 16.4691 13.2198 15.683 14.3153C15.1566 15.0488 13.9674 16.2268 12.0111 16.2268C10.4157 16.2268 9.01606 15.3916 8.22345 14.1345L21.7339 6.73421C21.986 6.59649 22.0748 6.27796 21.9314 6.02915V6.02943Z" fill="white"/>
</svg>

<svg xmlns="http://www.w3.org/2000/svg" width="24" height="24" fill="none" viewBox="0 0 24 24">
    <path fill="#fff" d="M21.931 6.03a.51.51 0 0 0-.709-.182L8.06 13.857a4.477 4.477 0 0 1 3.95-6.585 4.45 4.45 0 0 1 2.802.988l-2.8 1.924L19.29 5.98a.328.328 0 1 0-.35-.554l-1.781 1.223A7.22 7.22 0 0 0 12.01 4.5a7.25 7.25 0 0 0-7.246 7.25c0 1.29.337 2.5.926 3.549L2 17.544l3.79-2.076A7.24 7.24 0 0 0 12.01 19a7.25 7.25 0 0 0 7.245-7.25v-.866c0-.678.275-1.546 1.25-2.068a.17.17 0 0 0 .067-.232.167.167 0 0 0-.23-.062l-8.64 4.992c.965-.41 1.702-.66 2.68-.856 2.035-.41 2.087.562 1.301 1.657-.526.734-1.716 1.912-3.672 1.912a4.47 4.47 0 0 1-3.788-2.093l13.51-7.4a.51.51 0 0 0 .198-.705"/>
</svg>
